svgs/duotone/curling-stone.svg

<svg xmlns="http://www.w3.org/2000/svg" viewBox="0 0 576 512"><!-- Font Awesome Pro 6.0.0-alpha2 by @fontawesome - https://fontawesome.com License - https://fontawesome.com/license (Commercial License) --><defs><style>.fa-secondary{opacity:.4}</style></defs><path d="M0 384C0 437.02 42.98 480 96 480H480C533.02 480 576 437.02 576 384V368H0V384ZM480 224H96C42.98 224 0 266.98 0 320V336H576V320C576 266.98 533.02 224 480 224Z" class="fa-secondary"/><path d="M480 224H96C96 188.652 124.654 160 160 160V128C160 74.98 202.98 32 256 32H400C408.836 32 416 39.164 416 48V80C416 88.836 408.836 96 400 96H256C238.326 96 224 110.328 224 128V160H416C451.346 160 480 188.652 480 224Z" class="fa-primary"/></svg>

<svg xmlns="http://www.w3.org/2000/svg" viewBox="0 0 576 512"><!--! Font Awesome Pro 6.3.0 by @fontawesome - https://fontawesome.com License - https://fontawesome.com/license (Commercial License) Copyright 2023 Fonticons, Inc. --><defs><style>.fa-secondary{opacity:.4}</style></defs><path class="fa-primary" d="M480 224h-384c0-35.35 28.65-64 64-64V128c0-53.02 42.98-96 96-96h128C401.7 32 416 46.33 416 63.1S401.7 96 384 96H256C238.3 96 224 110.3 224 128v32h192C451.3 160 480 188.7 480 224z"/><path class="fa-secondary" d="M0 384c0 53.02 42.98 96 96 96h384c53.02 0 96-42.98 96-96v-16H0L0 384zM480 224h-384c-53.02 0-96 42.98-96 96L0 336h576V320C576 266.1 533 224 480 224z"/></svg>
